images/icon-phone.svg

<svg width="30" height="31" viewBox="0 0 30 31" fill="none" xmlns="http://www.w3.org/2000/svg">
<path d="M26.5131 27.4835L27.6134 26.2179C28.1849 25.6464 28.4999 24.8859 28.4999 24.0782C28.4999 23.2704 28.1849 22.5088 27.5583 21.8901L24.8065 19.7829C23.6275 18.6039 21.7094 18.6028 20.5282 19.7796L18.8047 21.4603C14.6647 19.7739 11.292 16.3978 9.47396 12.1195L11.148 10.4039C12.3281 9.22373 12.3281 7.30337 11.1963 6.17837L8.99247 3.31751C7.84835 2.17339 5.82786 2.20039 4.73999 3.29163L3.41924 4.44363C2.18062 5.6755 1.5 7.34837 1.5 9.15173C1.5 17.8693 13.0593 29.4286 21.7769 29.4286C23.5803 29.4286 25.252 28.748 26.5131 27.4835ZM8.1476 4.0555L10.3515 6.91637C11.0928 7.65774 11.0928 8.86486 10.347 9.61186L8.40972 11.5986C8.25447 11.7583 8.20722 11.9946 8.29047 12.2016C10.2356 17.0447 14.0426 20.8506 18.7372 22.6415C18.9419 22.7203 19.1737 22.6719 19.33 22.52L21.3168 20.5828C21.3168 20.5828 21.3202 20.5794 21.3213 20.5772C22.0402 19.8572 23.2383 19.8111 24.0663 20.6256L26.818 22.7327C27.5594 23.474 27.5594 24.68 26.7921 25.4507L25.6908 26.7163C24.6693 27.74 23.2788 28.3036 21.7769 28.3036C13.7219 28.3036 2.62499 17.2067 2.62499 9.15173C2.62499 7.64986 3.18862 6.25937 4.18536 5.26375L5.50723 4.11063C5.88523 3.73263 6.3836 3.54813 6.8741 3.54813C7.34547 3.54813 7.80897 3.71913 8.14872 4.05663L8.1476 4.0555Z" fill="#1E84B5"/>
<path d="M27.375 14.2412C27.375 14.5517 27.6269 14.8037 27.9374 14.8037C28.2479 14.8037 28.4999 14.5517 28.4999 14.2412C28.4999 7.72744 23.2012 2.42871 16.6875 2.42871C16.377 2.42871 16.125 2.68071 16.125 2.99121C16.125 3.30171 16.377 3.55371 16.6875 3.55371C22.5802 3.55371 27.375 8.34843 27.375 14.2412Z" fill="#0E384C"/>
<path d="M16.6875 6.92869C20.7195 6.92869 24 10.2092 24 14.2412C24 14.5517 23.748 14.8037 23.4375 14.8037C23.127 14.8037 22.875 14.5517 22.875 14.2412C22.875 10.829 20.0996 8.05369 16.6875 8.05369C16.377 8.05369 16.125 7.80169 16.125 7.49119C16.125 7.18069 16.377 6.92869 16.6875 6.92869Z" fill="#0E384C"/>
</svg>

<svg xmlns="http://www.w3.org/2000/svg" width="30" height="31" fill="none" viewBox="0 0 30 31"><path fill="#1e84b5" d="m26.513 27.484 1.1-1.266a3 3 0 0 0 .887-2.14c0-.808-.315-1.57-.942-2.188l-2.751-2.107a3.03 3.03 0 0 0-4.279-.003l-1.723 1.68c-4.14-1.686-7.513-5.062-9.331-9.34l1.674-1.716c1.18-1.18 1.18-3.1.048-4.226l-2.204-2.86C7.848 2.173 5.828 2.2 4.74 3.292L3.42 4.444C2.18 5.676 1.5 7.348 1.5 9.152c0 8.717 11.56 20.277 20.277 20.277 1.803 0 3.475-.681 4.736-1.945M8.148 4.055l2.204 2.86a1.907 1.907 0 0 1-.005 2.696L8.41 11.599a.56.56 0 0 0-.12.603c1.946 4.843 5.753 8.649 10.447 10.44.205.078.437.03.593-.122l1.987-1.937.004-.006c.72-.72 1.917-.766 2.745.049l2.752 2.107c.741.741.741 1.947-.026 2.718l-1.101 1.265c-1.022 1.024-2.412 1.588-3.914 1.588-8.055 0-19.152-11.097-19.152-19.152 0-1.502.564-2.893 1.56-3.888L5.507 4.11a1.93 1.93 0 0 1 1.367-.563 1.8 1.8 0 0 1 1.275.509z"/><path fill="#0e384c" d="M27.375 14.241a.563.563 0 0 0 1.125 0c0-6.514-5.3-11.811-11.812-11.811a.563.563 0 0 0 0 1.125c5.892 0 10.687 4.794 10.687 10.687"/><path fill="#0e384c" d="M16.688 6.929c4.032 0 7.312 3.28 7.312 7.312a.563.563 0 0 1-1.125 0 6.194 6.194 0 0 0-6.187-6.187.563.563 0 0 1 0-1.125"/></svg>
